packages/blockchain-info-components/src/Images/img/qr-code.svg

<svg fill="none" height="24" viewBox="0 0 24 24" width="24" xmlns="http://www.w3.org/2000/svg"><g clip-rule="evenodd" fill="#121d33" fill-rule="evenodd"><path d="m0 4.5c0-2.48528 2.01472-4.5 4.5-4.5h4c.27614 0 .5.223858.5.5s-.22386.5-.5.5h-4c-1.933 0-3.5 1.567-3.5 3.5v4c0 .27614-.223858.5-.5.5s-.5-.22386-.5-.5zm15-4c0-.276142.2239-.5.5-.5h4c2.4853 0 4.5 2.01472 4.5 4.5v4c0 .27614-.2239.5-.5.5s-.5-.22386-.5-.5v-4c0-1.933-1.567-3.5-3.5-3.5h-4c-.2761 0-.5-.223858-.5-.5zm-14.5 14.5c.276142 0 .5.2239.5.5v4c0 1.933 1.567 3.5 3.5 3.5h4c.27614 0 .5.2239.5.5s-.22386.5-.5.5h-4c-2.48528 0-4.5-2.0147-4.5-4.5v-4c0-.2761.223858-.5.5-.5zm23 0c.2761 0 .5.2239.5.5v4c0 2.4853-2.0147 4.5-4.5 4.5h-4c-.2761 0-.5-.2239-.5-.5s.2239-.5.5-.5h4c1.933 0 3.5-1.567 3.5-3.5v-4c0-.2761.2239-.5.5-.5z"/><path d="m5 3c-1.10457 0-2 .89543-2 2v6h8v-8zm3.5 2.5h-3v3h3z"/><path d="m11 13h-8v6c0 1.1046.89543 2 2 2h6zm-2.5 2.5h-3v3h3z"/><path d="m19 3h-6v8h8v-6c0-1.10457-.8954-2-2-2zm-.5 2.5h-3v3h3z"/><path d="m13 13h4v2h2v-2h2v2 1 2h-5v-2h-1v5h-2v-5-1zm3 8v-2h2v2zm3-2h2c0 1.1046-.8954 2-2 2z"/></g></svg>

<svg width="24" height="24" viewBox="0 0 24 24" fill="none" xmlns="http://www.w3.org/2000/svg">
<path fill-rule="evenodd" clip-rule="evenodd" d="M0 4.5C0 2.01472 2.01472 0 4.5 0H8.5C8.77614 0 9 0.223858 9 0.5C9 0.776142 8.77614 1 8.5 1H4.5C2.567 1 1 2.567 1 4.5V8.5C1 8.77614 0.776142 9 0.5 9C0.223858 9 0 8.77614 0 8.5V4.5ZM15 0.5C15 0.223858 15.2239 0 15.5 0H19.5C21.9853 0 24 2.01472 24 4.5V8.5C24 8.77614 23.7761 9 23.5 9C23.2239 9 23 8.77614 23 8.5V4.5C23 2.567 21.433 1 19.5 1H15.5C15.2239 1 15 0.776142 15 0.5ZM0.5 15C0.776142 15 1 15.2239 1 15.5V19.5C1 21.433 2.567 23 4.5 23H8.5C8.77614 23 9 23.2239 9 23.5C9 23.7761 8.77614 24 8.5 24H4.5C2.01472 24 0 21.9853 0 19.5L0 15.5C0 15.2239 0.223858 15 0.5 15ZM23.5 15C23.7761 15 24 15.2239 24 15.5V19.5C24 21.9853 21.9853 24 19.5 24H15.5C15.2239 24 15 23.7761 15 23.5C15 23.2239 15.2239 23 15.5 23H19.5C21.433 23 23 21.433 23 19.5V15.5C23 15.2239 23.2239 15 23.5 15Z" fill="#121D33"/>
<path fill-rule="evenodd" clip-rule="evenodd" d="M5 3C3.89543 3 3 3.89543 3 5V11H11V3H5ZM8.5 5.5H5.5V8.5H8.5V5.5Z" fill="#121D33"/>
<path fill-rule="evenodd" clip-rule="evenodd" d="M11 13H3V19C3 20.1046 3.89543 21 5 21H11V13ZM8.5 15.5H5.5V18.5H8.5V15.5Z" fill="#121D33"/>
<path fill-rule="evenodd" clip-rule="evenodd" d="M19 3H13V11H21V5C21 3.89543 20.1046 3 19 3ZM18.5 5.5H15.5V8.5H18.5V5.5Z" fill="#121D33"/>
<path fill-rule="evenodd" clip-rule="evenodd" d="M13 13H17V15H19V13H21V15V16V18H16V16H15V21H13V16V15V13ZM16 21V19H18V21H16ZM19 19H21C21 20.1046 20.1046 21 19 21V19Z" fill="#121D33"/>
</svg>
